X:302
T: Der Reiter und sein Liebchen (53a), S. 167
N: T0191
O: Luxemburg
S: Singendes Volk, Esch-Alzette 1937 posth.]
N: Straen, fff Witry, 13.12.1932
R: Liebeslieder]
M: 3/4
L: 1/16
K: G
D4 | G6F2B4 | A6G2A4 | B6c2B4 | A4z4
D4 | G6F2B4 | A6G2A4 | B6c2B4 | A4z4
d4 | c6B2A2Ac | B6A2
G4 | A6G2F4 | G2B2d4
e4 | e6e2e2ee | d6B2
B4 | c6B2A4 | G4z4

